!!!!SEGMENT: pl-sa--565-a-ix-45--002_anonim--anglaise.krn
!!!cenid: 18xx:593
!!!COM: Anonim
!!!COM-rismid: pe30004985
!!!CDT:
!!!CNT:
!!!OTL: Anglaise
!!!PDT:
!!!AGN: Secular; Anglaise
!!!SMS-siglum: PL-SA
!!!SMS-shelfmark: 565/A IX 45
!!!SMS-shelfwork: 002 W
!!!SMS-variant:
!!!SMS-altvar:
!!!NIFC-rismid: 1001077283
!!!system-decoration: {(s1,s2)}
!!!AIN: 1 empty
!!!key:
**kern	**kern
*part1	*part1
*staff2	*staff1
*Iempty	*Ipiano
*	*I"Piano
*	*I'P-no
*clefF4	*clefG2
*k[f#]	*k[f#]
*G:	*G:
*M2/4	*M2/4
*>[A,A,B,B]	*>[A,A,B,B]
=1	=1
*>A	*>A
!	!LO:TX:b:Bi:t=Anglos:rj
4G 4GG/	8bb\L
.	8dd\
4B 4G/	8gg\
.	8bb\J
=2	=2
*rep	*
4G 4GG/	8ccc\L
.	8dd\
4B 4G/	8bb\
.	8dd\J
*Xrep	*
=3	=3
4F# 4D\	8aa\L
.	8dd\
4c 4A\	8ff#\
.	8aa\J
=4	=4
*rep	*
4F# 4D\	8bb\L
.	8dd\
4c 4A\	8aa\
.	8dd\J
*Xrep	*
=5	=5
4G 4GG/	8ggL 8g\
.	8b\
4B 4G\	8dd\
.	8b\J
=6	=6
*rep	*
4G 4GG/	8bb\L
.	8dd\
4B 4G\	8gg\
.	8bb\J
*Xrep	*
=7	=7
4A 4D\	8aa\L
.	8gg\
4c 4A\	8ff#\
.	8aa\J
=8	=8
4B 4G\	4gg\
4r	4r
=9:|!|:	=9:|!|:
*>B	*>B
4G\	8b\L
.	8dd\
4d\	8gg\
.	8dd\J
=10	=10
*rep	*rep
4G\	8b\L
.	8dd\
4d\	8gg\
.	8dd\J
*Xrep	*Xrep
=11	=11
4A 4D\	8cc\L
.	8dd\
4d\	8ff#\
.	8dd\J
=12	=12
*rep	*rep
4A 4D\	8cc\L
.	8dd\
4d\	8ff#\
.	8dd\J
*Xrep	*Xrep
=13	=13
4B 4G\	8b\L
.	8dd\
4d\	8gg\
.	8dd\J
=14	=14
*rep	*
4B 4G\	8b\L
.	8dd\
4d\	8gg\
.	8bb\J
*Xrep	*
=15	=15
4A 4D\	8aa\L
.	8gg\
4c\	8ff#\
.	8aa\J
=16	=16
4B 4G\	4gg\
4r	4r
!LO:TX:a:t=P:problem=ozdobna kreska końcowa &colon;||&colon; połączona z repetycją	!LO:TX:a:t=P:problem=ozdobna kreska końcowa &colon;||&colon; połączona z repetycją
==:|!;;	==:|!;;
*-	*-
!!title: @{OTL};
!!!RDF**kern: > = above
!!!RDF**kern: < = below
!!!EED: Wojciech Jakubiak-Danek
!!!EEV: 2020-12-10
!!!URL-scan: http://bc.bdsandomierz.pl/dlibra/publication/1321/edition/1289/content
!!!ONB-nifc: Str. 1, s. 2
!!!ENC: Marcin Jachim
!!!END: 2020-06-19
